X: 1
T: Nora Criona
C: Trad. arr. Christine Martin
R: jig
Z: 2013 John Chambers <jc:trillian.mit.edu>
B: Christine Martin "Ho-Ro-Gheallaidh" "Session Tunes for Scottish Fiddlers" v.3 2008
N: (and from the playing of some friends in the Boston area)
M: 6/8
L: 1/8
K: Amix
|:\
"A"A2B "F#m"cBA | "Bm"B2c "E7"dcB | "A"ece aec | "E7"Bec dcB |\
"A"A2B "F#m"cBA | "A"edc "E7"Bce | a2{a}[ae] aec| "Bm"B2c "E7"dcB :|
|:\
"A"ece aec | "A"efe ecd | "A"ece aec | "Bm"B2c "E7"dcB |\
"A"ece [af][ec][af] | "A"ece a2e | "A"a2{a}[ae] aec | "E7"Bec dcB :|
